static/logos/gitlab-wordmark-color.svg

<svg width="100" height="22" viewBox="0 0 100 22" fill="none" xmlns="http://www.w3.org/2000/svg">
<g clip-path="url(#clip0_1_2654)">
<path d="M40.4235 8.2749H43.7011C43.1544 4.79001 40.1371 2.36267 36.2105 2.36267C31.5645 2.36267 28.0781 5.7785 28.0781 11.4994C28.0781 17.118 31.4076 20.6029 36.3055 20.6029C40.7011 20.6029 43.8479 17.7756 43.8479 13.1986V11.0663H36.6436V13.5799H40.7357C40.6839 16.1123 38.9932 17.7151 36.3227 17.7151C33.3501 17.7151 31.3127 15.4878 31.3127 11.4648C31.3127 7.46771 33.3846 5.249 36.2537 5.249C38.3947 5.249 39.8594 6.39289 40.4235 8.2749Z" fill="#171321"/>
<path d="M46.0108 20.3597H49.149V7.05038H46.0108V20.3597ZM47.5936 4.93527C48.5907 4.93527 49.4051 4.17124 49.4051 3.23599C49.4051 2.30074 48.5907 1.52808 47.5936 1.52808C46.5965 1.52808 45.7734 2.29067 45.7734 3.23599C45.7734 4.18131 46.5821 4.93527 47.5878 4.93527H47.5936Z" fill="#171321"/>
<path d="M58.5453 7.05039H55.918V3.85327H52.7798V7.05039H50.8906V9.47773H52.7798V16.882C52.7626 19.387 54.5841 20.623 56.941 20.5496C57.5688 20.5373 58.1913 20.4319 58.7885 20.2374L58.259 17.7827C57.9591 17.8606 57.6508 17.9017 57.341 17.905C56.5511 17.905 55.918 17.6273 55.918 16.3611V9.47054H58.5453V7.05039Z" fill="#171321"/>
<path d="M60.9766 20.3598H72.0125V17.6633H64.1938V2.60437H60.9766V20.3598Z" fill="#171321"/>
<path d="M78.0256 20.6288C80.1148 20.6288 81.3623 19.6489 81.935 18.5309H82.0386V20.3597H85.0602V11.4475C85.0602 7.92804 82.1911 6.87048 79.6501 6.87048C76.8501 6.87048 74.7005 8.11797 74.0069 10.5453L76.9379 10.9626C77.2487 10.0518 78.1336 9.27192 79.6717 9.27192C81.1292 9.27192 81.9264 10.0172 81.9264 11.3266V11.3784C81.9264 12.2791 80.981 12.3237 78.6314 12.5741C76.0487 12.8518 73.5782 13.623 73.5782 16.623C73.5695 19.2417 75.4846 20.6288 78.0256 20.6288ZM79.0573 18.3266C77.7479 18.3266 76.8112 17.728 76.8112 16.5755C76.8112 15.3698 77.8602 14.8676 79.2573 14.6676C80.0818 14.5554 81.7292 14.3467 82.135 14.0187V15.587C82.1436 17.0647 80.9465 18.3223 79.0573 18.3223V18.3266Z" fill="#171321"/>
<path d="M87.3672 20.3598H90.4535V18.2619H90.6348C91.1298 19.2331 92.1614 20.5943 94.4506 20.5943C97.5888 20.5943 99.9384 18.1051 99.9384 13.7195C99.9384 9.28063 97.5197 6.87056 94.442 6.87056C92.0924 6.87056 91.1125 8.28351 90.6348 9.2461H90.5024V2.60437H87.3672V20.3598ZM90.4449 13.7022C90.4449 11.1123 91.5542 9.44466 93.5744 9.44466C95.6636 9.44466 96.7398 11.2216 96.7398 13.7022C96.7398 16.1828 95.6478 18.0187 93.5744 18.0187C91.5715 18.0187 90.4449 16.2849 90.4449 13.7022Z" fill="#171321"/>
<path d="M22.1559 8.6864L22.1257 8.60582L19.0753 0.648987C19.0136 0.492753 18.9037 0.360219 18.7617 0.27057C18.6556 0.20271 18.5352 0.160628 18.41 0.147697C18.2848 0.134765 18.1584 0.151344 18.0407 0.196105C17.9231 0.240868 17.8175 0.312566 17.7326 0.405455C17.6477 0.498343 17.5857 0.609838 17.5516 0.731002L15.4926 7.0346H7.15448L5.09547 0.731002C5.06113 0.610019 4.999 0.498734 4.91402 0.406023C4.82904 0.313313 4.72357 0.241741 4.60602 0.197016C4.48848 0.152291 4.36212 0.13565 4.237 0.148421C4.11189 0.161192 3.99149 0.203019 3.8854 0.27057C3.74334 0.360219 3.63347 0.492753 3.57173 0.648987L0.522818 8.60726L0.491163 8.6864C0.0522073 9.83361 -0.00187039 11.0924 0.337082 12.273C0.676033 13.4537 1.38964 14.4921 2.37031 15.2317L2.38182 15.2403L2.4077 15.2605L7.04799 18.7382L9.35015 20.4777L10.7487 21.5353C10.9128 21.6593 11.1129 21.7264 11.3185 21.7264C11.5242 21.7264 11.7242 21.6593 11.8883 21.5353L13.2868 20.4777L15.589 18.7382L20.2624 15.2403L20.2753 15.2303C21.2559 14.491 21.9696 13.4528 22.3089 12.2725C22.648 11.0922 22.5943 9.83356 22.1559 8.6864Z" fill="#E24329"/>
<path d="M22.1569 8.68629L22.1267 8.60571C20.6405 8.91068 19.2401 9.54059 18.026 10.4503L11.3281 15.5151L15.5929 18.7381L20.2663 15.2402L20.2792 15.2302C21.2593 14.4904 21.9724 13.4522 22.3111 12.2719C22.6497 11.0916 22.5956 9.83315 22.1569 8.68629Z" fill="#FC6D26"/>
<path d="M7.04688 18.7382L9.34903 20.4777L10.7476 21.5353C10.9117 21.6593 11.1117 21.7264 11.3174 21.7264C11.523 21.7264 11.7231 21.6593 11.8872 21.5353L13.2857 20.4777L15.5879 18.7382L11.3231 15.5151L7.04688 18.7382Z" fill="#FCA326"/>
<path d="M4.62209 10.4503C3.40837 9.54108 2.00848 8.91165 0.522818 8.60718L0.491163 8.68631C0.0522073 9.83352 -0.00187039 11.0923 0.337082 12.273C0.676033 13.4536 1.38964 14.492 2.37031 15.2316L2.38182 15.2402L2.4077 15.2604L7.04799 18.7381L11.3156 15.515L4.62209 10.4503Z" fill="#FC6D26"/>
</g>
<defs>
<clipPath id="clip0_1_2654">
<rect width="100" height="21.7266" fill="white"/>
</clipPath>
</defs>
</svg>

<svg xmlns="http://www.w3.org/2000/svg" width="290.909" height="64" fill="none" viewBox="0 0 100 22"><g clip-path="url(#a)"><path fill="#171321" d="M40.423 8.275h3.278c-.547-3.485-3.564-5.912-7.49-5.912-4.646 0-8.133 3.416-8.133 9.136 0 5.619 3.33 9.104 8.228 9.104 4.395 0 7.542-2.827 7.542-7.404v-2.133h-7.204v2.514h4.092c-.052 2.532-1.743 4.135-4.413 4.135-2.973 0-5.01-2.227-5.01-6.25 0-3.997 2.072-6.216 4.94-6.216 2.142 0 3.606 1.144 4.17 3.026ZM46.01 20.36h3.139V7.05h-3.138v13.31Zm1.584-15.425c.997 0 1.811-.764 1.811-1.699s-.814-1.708-1.811-1.708c-.998 0-1.82.763-1.82 1.708s.808 1.7 1.814 1.7h.006ZM58.545 7.05h-2.627V3.853H52.78V7.05h-1.89v2.428h1.89v7.404c-.017 2.505 1.804 3.741 4.161 3.668a6.369 6.369 0 0 0 1.847-.313l-.529-2.454c-.3.078-.608.119-.918.122-.79 0-1.423-.278-1.423-1.544v-6.89h2.627V7.05ZM60.977 20.36h11.036v-2.697h-7.82V2.604h-3.216V20.36ZM78.026 20.629c2.089 0 3.336-.98 3.909-2.098h.104v1.829h3.021v-8.912c0-3.52-2.869-4.578-5.41-4.578-2.8 0-4.95 1.248-5.643 3.675l2.93.418c.312-.911 1.197-1.691 2.735-1.691 1.457 0 2.254.745 2.254 2.055v.051c0 .901-.945.946-3.295 1.196-2.582.278-5.053 1.049-5.053 4.049-.008 2.619 1.907 4.006 4.448 4.006Zm1.031-2.302c-1.31 0-2.246-.599-2.246-1.752 0-1.205 1.05-1.707 2.446-1.907.825-.113 2.472-.321 2.878-.65v1.569c.009 1.478-1.189 2.735-3.078 2.735v.005ZM87.367 20.36h3.087v-2.098h.18c.496.971 1.527 2.332 3.817 2.332 3.138 0 5.487-2.489 5.487-6.875 0-4.438-2.418-6.848-5.496-6.848-2.35 0-3.33 1.413-3.807 2.375h-.133V2.604h-3.135V20.36Zm3.078-6.658c0-2.59 1.11-4.257 3.13-4.257 2.089 0 3.165 1.777 3.165 4.257 0 2.48-1.092 4.317-3.166 4.317-2.002 0-3.13-1.734-3.13-4.317Z"/><path fill="#E24329" d="m22.156 8.686-.03-.08-3.05-7.957a.806.806 0 0 0-1.524.082l-2.06 6.304H7.155L5.095.73A.807.807 0 0 0 3.572.649L.522 8.607l-.03.08a5.663 5.663 0 0 0 1.878 6.545l.012.008.026.02 4.64 3.478 2.302 1.74 1.399 1.057a.945.945 0 0 0 1.14 0l1.398-1.057 2.302-1.74 4.673-3.498.013-.01a5.664 5.664 0 0 0 1.88-6.544Z"/><path fill="#FC6D26" d="m22.157 8.686-.03-.08a10.287 10.287 0 0 0-4.101 1.844l-6.698 5.065 4.265 3.223 4.673-3.498.013-.01a5.664 5.664 0 0 0 1.878-6.544Z"/><path fill="#FCA326" d="m7.047 18.738 2.302 1.74 1.399 1.057a.945.945 0 0 0 1.14 0l1.398-1.057 2.302-1.74-4.265-3.223-4.276 3.223Z"/><path fill="#FC6D26" d="M4.622 10.45a10.28 10.28 0 0 0-4.1-1.843l-.03.08a5.663 5.663 0 0 0 1.878 6.545l.012.008.026.02 4.64 3.478 4.268-3.223-6.694-5.065Z"/></g><defs><clipPath id="a"><path fill="#fff" d="M0 0h100v21.727H0z"/></clipPath></defs></svg>
